!! 00000] TT[WS
!!!OTL: Da suanzao
!!!ARE: Asia, China, Shanxi Xingxian
!! Ethnic Group: Han
!! WII, 178 (1)
!!!SCT: J0669
!!!YEM: Copyright 1995, estate of Helmut Schaffrath.
**kern
*ICvox
*Ivox
*M2/4
*k[f#c#]
*D:
{8a
16b
16a
4f#
=1
8dd
8ff#
8ee
8ff#
=2
8dd
8dd
8b
8a
=3
2f#}
=4
{8dd
8ee
4ff#
=5
8ff#
16ee
16dd
4a
=6
8dd
8dd
8b
8f#
=7
2a}
==
!!!AGN: Xiaodiao. Laodong, Fengsu
!!!ONB: ESAC (Essen Associative Code) Database: CHINA
!!!AMT: simple duple
!!!AIN: vox
!!!EED: Helmut Schaffrath
!!!EEV: 1.0
*-
